X:1
T: Bonnie Kate
T: 2nd setting
R:Reel
Q: 232
K:D
M:4/4
L:1/8
dB|:AF Ad BG AF|DF AF ED EG|FD EF GA Bd|cA Bc dc dB|
AF Ad BG AF|DF AF ED EG|FD EF GA Bd|cA Bc de fg|
a2fd fa fd|gf ed cd ef|g2gf gb ag|fd ec de fg|
a2fd fa fd|gf ed cd ef|g2gf gb ag|fd ec dc dB:|
